X: 189
T: Mu ge
%%abc-version 2.0
%%abcx-abcm2ps-target-version 5.9.1 (29 Sep 2008)
%%abc-creator hum2abc beta
%%abcx-conversion-date 2013/10/02 07:44:28
%%abc-edited-by Helmut Schaffrath
%%humdrum-veritas 4089838784
%%humdrum-veritas-data 3958564961
%%continueall 1
%%barnumbers 0
L: 1/8
M: 2/4
K: D
F2A2- [I:setbarnb 1]| 
A3A | 
A/ B/ cB2- | 
B3c | 
F2A2- | 
A3B | 
A/ B/A3- | 
A4 | 
A2D2- | 
D3E | 
FE3- | 
E FE2 | 
B,2D2- | 
D D E/ D/ E/ F/ | 
D4 |]  



